collections/phosporicons/regular/faders.svg

<svg xmlns="http://www.w3.org/2000/svg" viewBox="0 0 256.001 256.001" width="20" height="20"><path fill="none" d="M0 0h256v256H0z"/><path fill="none" stroke="#000" stroke-linecap="round" stroke-linejoin="round" stroke-width="16" d="M128.001 120v96m0-176v48m72 112l.001 16m0-176l-.001 128m24 0h-48m-120 0L56 216m0-176l.001 96m-24 0h48m72-48h-48"/></svg>

<svg xmlns="http://www.w3.org/2000/svg" viewBox="0 0 256.001 256.001" width="20" height="20"><path fill="none" d="M0 0h256v256H0z"/><path fill="none" stroke="#000" stroke-linecap="round" stroke-linejoin="round" stroke-width="16" d="M128.001 120v96M128.001 40v48M200.001 200l.001 16M200.002 40l-.001 128M224.001 168h-48M56.001 168L56 216M56 40l.001 96M32.001 136h48M152.001 88h-48"/></svg>
